report_00007_2020-12-11T15:55:29.892Z/max-potential-fid/comparison/line/7_vs_8.svg

<svg width="640" height="500" xmlns="http://www.w3.org/2000/svg" xmlns:xlink="http://www.w3.org/1999/xlink"><path fill="#fff" d="M0 0h640v500H0z"/><defs><path id="d" stroke-width=".222" stroke="currentColor" d="M-1-1h2v2h-2z"/><path id="b" stroke-width=".222" stroke="currentColor" d="M0-1.33l-1.33 2h2.66z"/><path id="f" stroke-width=".222" stroke="currentColor" d="M0 1.33L1.265.411.782-1.067l-1.564-.009-.483 1.487z"/><use xlink:href="#b" id="c" stroke="currentColor" transform="rotate(180)"/><use xlink:href="#d" id="e" stroke="currentColor" transform="rotate(45)"/><circle id="a" stroke-width=".222" stroke="currentColor" cx="0" cy="0" r="1"/></defs><g fill="none" color="#000" stroke="currentColor"><path stroke="#000" d="M45.6 420.1h9m560.4 0h-9"/><text transform="translate(37.3 424)" stroke="none" fill="#000" font-family="Arial" font-size="12" text-anchor="end"><tspan>25</tspan></text></g><g fill="none" color="#000" stroke="currentColor"><path stroke="#000" d="M45.6 378.6h9m560.4 0h-9"/><text transform="translate(37.3 382.5)" stroke="none" fill="#000" font-family="Arial" font-size="12" text-anchor="end"><tspan>30</tspan></text></g><g fill="none" color="#000" stroke="currentColor"><path stroke="#000" d="M45.6 337.1h9m560.4 0h-9"/><text transform="translate(37.3 341)" stroke="none" fill="#000" font-family="Arial" font-size="12" text-anchor="end"><tspan>35</tspan></text></g><g fill="none" color="#000" stroke="currentColor"><path stroke="#000" d="M45.6 295.7h9m560.4 0h-9"/><text transform="translate(37.3 299.6)" stroke="none" fill="#000" font-family="Arial" font-size="12" text-anchor="end"><tspan>40</tspan></text></g><g fill="none" color="#000" stroke="currentColor"><path stroke="#000" d="M45.6 254.2h9m560.4 0h-9"/><text transform="translate(37.3 258.1)" stroke="none" fill="#000" font-family="Arial" font-size="12" text-anchor="end"><tspan>45</tspan></text></g><g fill="none" color="#000" stroke="currentColor"><path stroke="#000" d="M45.6 212.7h9m560.4 0h-9"/><text transform="translate(37.3 216.6)" stroke="none" fill="#000" font-family="Arial" font-size="12" text-anchor="end"><tspan>50</tspan></text></g><g fill="none" color="#000" stroke="currentColor"><path stroke="#000" d="M45.6 171.2h9m560.4 0h-9"/><text transform="translate(37.3 175.1)" stroke="none" fill="#000" font-family="Arial" font-size="12" text-anchor="end"><tspan>55</tspan></text></g><g fill="none" color="#000" stroke="currentColor"><path stroke="#000" d="M45.6 129.7h9m560.4 0h-9"/><text transform="translate(37.3 133.6)" stroke="none" fill="#000" font-family="Arial" font-size="12" text-anchor="end"><tspan>60</tspan></text></g><g fill="none" color="#000" stroke="currentColor"><path stroke="#000" d="M45.6 88.2h9m560.4 0h-9"/><text transform="translate(37.3 92.1)" stroke="none" fill="#000" font-family="Arial" font-size="12" text-anchor="end"><tspan>65</tspan></text></g><g fill="none" color="#000" stroke="currentColor"><path stroke="#000" d="M45.6 46.7h9m560.4 0h-9"/><text transform="translate(37.3 50.6)" stroke="none" fill="#000" font-family="Arial" font-size="12" text-anchor="end"><tspan>70</tspan></text></g><g fill="none" color="#000" stroke="currentColor"><path stroke="#000" d="M45.6 428v-9m0-400.9v9"/><text transform="translate(45.6 449.9)" stroke="none" fill="#000" font-family="Arial" font-size="12" text-anchor="middle"><tspan>0</tspan></text></g><g fill="none" color="#000" stroke="currentColor"><path stroke="#000" d="M103.1 428v-9m0-400.9v9"/><text transform="translate(103.1 449.9)" stroke="none" fill="#000" font-family="Arial" font-size="12" text-anchor="middle"><tspan>10</tspan></text></g><g fill="none" color="#000" stroke="currentColor"><path stroke="#000" d="M160.6 428v-9m0-400.9v9"/><text transform="translate(160.6 449.9)" stroke="none" fill="#000" font-family="Arial" font-size="12" text-anchor="middle"><tspan>20</tspan></text></g><g fill="none" color="#000" stroke="currentColor"><path stroke="#000" d="M218.1 428v-9m0-400.9v9"/><text transform="translate(218.1 449.9)" stroke="none" fill="#000" font-family="Arial" font-size="12" text-anchor="middle"><tspan>30</tspan></text></g><g fill="none" color="#000" stroke="currentColor"><path stroke="#000" d="M275.7 428v-9m0-400.9v9"/><text transform="translate(275.7 449.9)" stroke="none" fill="#000" font-family="Arial" font-size="12" text-anchor="middle"><tspan>40</tspan></text></g><g fill="none" color="#000" stroke="currentColor"><path stroke="#000" d="M333.2 428v-9m0-400.9v9"/><text transform="translate(333.2 449.9)" stroke="none" fill="#000" font-family="Arial" font-size="12" text-anchor="middle"><tspan>50</tspan></text></g><g fill="none" color="#000" stroke="currentColor"><path stroke="#000" d="M390.7 428v-9m0-400.9v9"/><text transform="translate(390.7 449.9)" stroke="none" fill="#000" font-family="Arial" font-size="12" text-anchor="middle"><tspan>60</tspan></text></g><g fill="none" color="#000" stroke="currentColor"><path stroke="#000" d="M448.2 428v-9m0-400.9v9"/><text transform="translate(448.2 449.9)" stroke="none" fill="#000" font-family="Arial" font-size="12" text-anchor="middle"><tspan>70</tspan></text></g><g fill="none" color="#000" stroke="currentColor"><path stroke="#000" d="M505.7 428v-9m0-400.9v9"/><text transform="translate(505.7 449.9)" stroke="none" fill="#000" font-family="Arial" font-size="12" text-anchor="middle"><tspan>80</tspan></text></g><g fill="none" color="#000" stroke="currentColor"><path stroke="#000" d="M563.2 428v-9m0-400.9v9"/><text transform="translate(563.2 449.9)" stroke="none" fill="#000" font-family="Arial" font-size="12" text-anchor="middle"><tspan>90</tspan></text></g><path stroke="#000" d="M45.6 18.1V428H615V18.1H45.6z" fill="none" color="#000"/><text transform="translate(271.5 467.9)" stroke="none" fill="#000" font-family="Arial" font-size="12" text-anchor="end" color="#000"><tspan>pages+cached+noexternal+nosvg</tspan></text><path stroke="#9400D3" d="M279.8 464H322M45.6 395.2l5.8 8.3 5.7-8.3h5.8l5.7 16.6 5.8-16.6 5.7 8.3 5.8-16.6 5.7 8.3 5.8 8.3h5.7L108.9 26l5.7 360.9 5.8 16.6h11.5l5.7-8.3 5.8 8.3h5.7l5.8-41.5 5.7 33.2 5.8 16.6h5.7l5.8-8.3h5.7l5.8-8.3 5.7 8.3h5.8l5.7-41.5 5.8 49.8 5.7-8.3 5.8-8.3 5.7 8.3h5.8l5.8 8.3 5.7-8.3 5.8-16.6 5.7 16.6 5.8 8.3 5.7-16.6 5.8 8.3 5.7-8.3 5.8-33.2 5.7 41.5 5.8-8.3 5.7-33.2h11.5l5.8 41.5h5.7l5.8-41.5 5.7 33.2 5.8 8.3h5.7l5.8 8.3 5.7-8.3 5.8 8.3 5.7-8.3 5.8-16.6 5.7 16.6 5.8-8.3h5.7l5.8 8.3 5.7-8.3h5.8l5.7 8.3h5.8l5.8-8.3 5.7 8.3 5.8-49.8 5.7 49.8h17.3l5.7 8.3 5.8-8.3 5.7 8.3 5.8-24.9 5.7 8.3h5.8l5.7 8.3h5.8l5.7-41.5h5.8l5.7 33.2h5.8l5.7 8.3h11.5l5.8-41.5 5.7 8.3 5.8 33.2h23l5.7-41.5 5.8 33.2 5.7 8.3h5.8" fill="none" color="#000"/><text transform="translate(271.5 485.9)" stroke="none" fill="#000" font-family="Arial" font-size="12" text-anchor="end" color="#000"><tspan>pages+cached+noexternal+noimg</tspan></text><path stroke="#009E73" d="M279.8 482H322M45.6 395.2l5.8-41.5 5.7 58.1 5.8-49.8 5.7 41.5 5.8 8.3 5.7-8.3 5.8-58.1 5.7 66.4 5.8-8.3h5.7l5.8-66.4 5.7 66.4 5.8-33.2 5.7-33.2 5.8 66.4h5.7l5.8 8.3 5.7-8.3 5.8-33.2 5.7 41.5h5.8l5.7-8.3h5.8l5.7-58.1 5.8 58.1 5.7-8.3 5.8 8.3h23l5.7-66.4 5.8 58.1 5.8 16.6 5.7-66.4 5.8 49.8h5.7l5.8 8.3 5.7 8.3 5.8-8.3 5.7-8.3 5.8 24.9 5.7-24.9 5.8-24.9 5.7 33.2 5.8 8.3 5.7-16.6 5.8 16.6 5.7-8.3 5.8-8.3 5.7-83 5.8 58.1 5.7 24.9 5.8 8.3 5.7-8.3 5.8 8.3 5.7 8.3 5.8-66.4 5.7 58.1 5.8-8.3h5.7l5.8 8.3h5.7l5.8 8.3 5.7-8.3 5.8-8.3 5.8-49.8 5.7 33.2 5.8-8.3 5.7 33.2 5.8 8.3 5.7-8.3h11.5l5.8-58.1 5.7 8.3 5.8 58.1 5.7-8.3 5.8-49.8 5.7 49.8 5.8 8.3 5.7-8.3 5.8-58.1 5.7 58.1h5.8l5.7-8.3 5.8 8.3 5.7 8.3 5.8-74.7 5.7 58.1 5.8 8.3 5.7 8.3 5.8-8.3H592l5.7-58.1 5.8 58.1H615" fill="none" color="#000"/><text transform="translate(571 467.9)" stroke="none" fill="#000" font-family="Arial" font-size="12" text-anchor="end" color="#000"><tspan>score p10=130</tspan></text><path stroke="#56B4E9" d="M579.3 464h42.2" fill="none" color="#000"/><g><text transform="translate(571 485.9)" stroke="none" fill="#000" font-family="Arial" font-size="12" text-anchor="end" color="#000"><tspan>score median=250</tspan></text><path stroke="#E69F00" d="M579.3 482h42.2" fill="none" color="#000"/></g><g fill="none" color="#000" stroke="currentColor"><path stroke="#000" d="M45.6 18.1V428H615V18.1H45.6z"/></g></svg>

<?xml version="1.0" encoding="utf-8"  standalone="no"?>
<svg 
 width="640" height="500"
 viewBox="0 0 640 500"
 xmlns="http://www.w3.org/2000/svg"
 xmlns:xlink="http://www.w3.org/1999/xlink"
>

<title>Gnuplot</title>
<desc>Produced by GNUPLOT 5.4 patchlevel 0 </desc>

<g id="gnuplot_canvas">

<rect x="0" y="0" width="640" height="500" fill="#ffffff"/>
<defs>

	<circle id='gpDot' r='0.5' stroke-width='0.5' stroke='currentColor'/>
	<path id='gpPt0' stroke-width='0.222' stroke='currentColor' d='M-1,0 h2 M0,-1 v2'/>
	<path id='gpPt1' stroke-width='0.222' stroke='currentColor' d='M-1,-1 L1,1 M1,-1 L-1,1'/>
	<path id='gpPt2' stroke-width='0.222' stroke='currentColor' d='M-1,0 L1,0 M0,-1 L0,1 M-1,-1 L1,1 M-1,1 L1,-1'/>
	<rect id='gpPt3' stroke-width='0.222' stroke='currentColor' x='-1' y='-1' width='2' height='2'/>
	<rect id='gpPt4' stroke-width='0.222' stroke='currentColor' fill='currentColor' x='-1' y='-1' width='2' height='2'/>
	<circle id='gpPt5' stroke-width='0.222' stroke='currentColor' cx='0' cy='0' r='1'/>
	<use xlink:href='#gpPt5' id='gpPt6' fill='currentColor' stroke='none'/>
	<path id='gpPt7' stroke-width='0.222' stroke='currentColor' d='M0,-1.33 L-1.33,0.67 L1.33,0.67 z'/>
	<use xlink:href='#gpPt7' id='gpPt8' fill='currentColor' stroke='none'/>
	<use xlink:href='#gpPt7' id='gpPt9' stroke='currentColor' transform='rotate(180)'/>
	<use xlink:href='#gpPt9' id='gpPt10' fill='currentColor' stroke='none'/>
	<use xlink:href='#gpPt3' id='gpPt11' stroke='currentColor' transform='rotate(45)'/>
	<use xlink:href='#gpPt11' id='gpPt12' fill='currentColor' stroke='none'/>
	<path id='gpPt13' stroke-width='0.222' stroke='currentColor' d='M0,1.330 L1.265,0.411 L0.782,-1.067 L-0.782,-1.076 L-1.265,0.411 z'/>
	<use xlink:href='#gpPt13' id='gpPt14' fill='currentColor' stroke='none'/>
	<filter id='textbox' filterUnits='objectBoundingBox' x='0' y='0' height='1' width='1'>
	  <feFlood flood-color='#FFFFFF' flood-opacity='1' result='bgnd'/>
	  <feComposite in='SourceGraphic' in2='bgnd' operator='atop'/>
	</filter>
	<filter id='greybox' filterUnits='objectBoundingBox' x='0' y='0' height='1' width='1'>
	  <feFlood flood-color='lightgrey' flood-opacity='1' result='grey'/>
	  <feComposite in='SourceGraphic' in2='grey' operator='atop'/>
	</filter>
</defs>
<g fill="none" color="#FFFFFF" stroke="black" stroke-width="1.00" stroke-linecap="butt" stroke-linejoin="miter">
</g>
<g fill="none" color="black" stroke="currentColor" stroke-width="1.00" stroke-linecap="butt" stroke-linejoin="miter">
	<path stroke='black'  d='M45.6,420.1 L54.6,420.1 M615.0,420.1 L606.0,420.1  '/>	<g transform="translate(37.3,424.0)" stroke="none" fill="black" font-family="Arial" font-size="12.00"  text-anchor="end">
		<text><tspan font-family="Arial" > 25</tspan></text>
	</g>
</g>
<g fill="none" color="black" stroke="currentColor" stroke-width="1.00" stroke-linecap="butt" stroke-linejoin="miter">
	<path stroke='black'  d='M45.6,378.6 L54.6,378.6 M615.0,378.6 L606.0,378.6  '/>	<g transform="translate(37.3,382.5)" stroke="none" fill="black" font-family="Arial" font-size="12.00"  text-anchor="end">
		<text><tspan font-family="Arial" > 30</tspan></text>
	</g>
</g>
<g fill="none" color="black" stroke="currentColor" stroke-width="1.00" stroke-linecap="butt" stroke-linejoin="miter">
	<path stroke='black'  d='M45.6,337.1 L54.6,337.1 M615.0,337.1 L606.0,337.1  '/>	<g transform="translate(37.3,341.0)" stroke="none" fill="black" font-family="Arial" font-size="12.00"  text-anchor="end">
		<text><tspan font-family="Arial" > 35</tspan></text>
	</g>
</g>
<g fill="none" color="black" stroke="currentColor" stroke-width="1.00" stroke-linecap="butt" stroke-linejoin="miter">
	<path stroke='black'  d='M45.6,295.7 L54.6,295.7 M615.0,295.7 L606.0,295.7  '/>	<g transform="translate(37.3,299.6)" stroke="none" fill="black" font-family="Arial" font-size="12.00"  text-anchor="end">
		<text><tspan font-family="Arial" > 40</tspan></text>
	</g>
</g>
<g fill="none" color="black" stroke="currentColor" stroke-width="1.00" stroke-linecap="butt" stroke-linejoin="miter">
	<path stroke='black'  d='M45.6,254.2 L54.6,254.2 M615.0,254.2 L606.0,254.2  '/>	<g transform="translate(37.3,258.1)" stroke="none" fill="black" font-family="Arial" font-size="12.00"  text-anchor="end">
		<text><tspan font-family="Arial" > 45</tspan></text>
	</g>
</g>
<g fill="none" color="black" stroke="currentColor" stroke-width="1.00" stroke-linecap="butt" stroke-linejoin="miter">
	<path stroke='black'  d='M45.6,212.7 L54.6,212.7 M615.0,212.7 L606.0,212.7  '/>	<g transform="translate(37.3,216.6)" stroke="none" fill="black" font-family="Arial" font-size="12.00"  text-anchor="end">
		<text><tspan font-family="Arial" > 50</tspan></text>
	</g>
</g>
<g fill="none" color="black" stroke="currentColor" stroke-width="1.00" stroke-linecap="butt" stroke-linejoin="miter">
	<path stroke='black'  d='M45.6,171.2 L54.6,171.2 M615.0,171.2 L606.0,171.2  '/>	<g transform="translate(37.3,175.1)" stroke="none" fill="black" font-family="Arial" font-size="12.00"  text-anchor="end">
		<text><tspan font-family="Arial" > 55</tspan></text>
	</g>
</g>
<g fill="none" color="black" stroke="currentColor" stroke-width="1.00" stroke-linecap="butt" stroke-linejoin="miter">
	<path stroke='black'  d='M45.6,129.7 L54.6,129.7 M615.0,129.7 L606.0,129.7  '/>	<g transform="translate(37.3,133.6)" stroke="none" fill="black" font-family="Arial" font-size="12.00"  text-anchor="end">
		<text><tspan font-family="Arial" > 60</tspan></text>
	</g>
</g>
<g fill="none" color="black" stroke="currentColor" stroke-width="1.00" stroke-linecap="butt" stroke-linejoin="miter">
	<path stroke='black'  d='M45.6,88.2 L54.6,88.2 M615.0,88.2 L606.0,88.2  '/>	<g transform="translate(37.3,92.1)" stroke="none" fill="black" font-family="Arial" font-size="12.00"  text-anchor="end">
		<text><tspan font-family="Arial" > 65</tspan></text>
	</g>
</g>
<g fill="none" color="black" stroke="currentColor" stroke-width="1.00" stroke-linecap="butt" stroke-linejoin="miter">
	<path stroke='black'  d='M45.6,46.7 L54.6,46.7 M615.0,46.7 L606.0,46.7  '/>	<g transform="translate(37.3,50.6)" stroke="none" fill="black" font-family="Arial" font-size="12.00"  text-anchor="end">
		<text><tspan font-family="Arial" > 70</tspan></text>
	</g>
</g>
<g fill="none" color="black" stroke="currentColor" stroke-width="1.00" stroke-linecap="butt" stroke-linejoin="miter">
	<path stroke='black'  d='M45.6,428.0 L45.6,419.0 M45.6,18.1 L45.6,27.1  '/>	<g transform="translate(45.6,449.9)" stroke="none" fill="black" font-family="Arial" font-size="12.00"  text-anchor="middle">
		<text><tspan font-family="Arial" > 0</tspan></text>
	</g>
</g>
<g fill="none" color="black" stroke="currentColor" stroke-width="1.00" stroke-linecap="butt" stroke-linejoin="miter">
	<path stroke='black'  d='M103.1,428.0 L103.1,419.0 M103.1,18.1 L103.1,27.1  '/>	<g transform="translate(103.1,449.9)" stroke="none" fill="black" font-family="Arial" font-size="12.00"  text-anchor="middle">
		<text><tspan font-family="Arial" > 10</tspan></text>
	</g>
</g>
<g fill="none" color="black" stroke="currentColor" stroke-width="1.00" stroke-linecap="butt" stroke-linejoin="miter">
	<path stroke='black'  d='M160.6,428.0 L160.6,419.0 M160.6,18.1 L160.6,27.1  '/>	<g transform="translate(160.6,449.9)" stroke="none" fill="black" font-family="Arial" font-size="12.00"  text-anchor="middle">
		<text><tspan font-family="Arial" > 20</tspan></text>
	</g>
</g>
<g fill="none" color="black" stroke="currentColor" stroke-width="1.00" stroke-linecap="butt" stroke-linejoin="miter">
	<path stroke='black'  d='M218.1,428.0 L218.1,419.0 M218.1,18.1 L218.1,27.1  '/>	<g transform="translate(218.1,449.9)" stroke="none" fill="black" font-family="Arial" font-size="12.00"  text-anchor="middle">
		<text><tspan font-family="Arial" > 30</tspan></text>
	</g>
</g>
<g fill="none" color="black" stroke="currentColor" stroke-width="1.00" stroke-linecap="butt" stroke-linejoin="miter">
	<path stroke='black'  d='M275.7,428.0 L275.7,419.0 M275.7,18.1 L275.7,27.1  '/>	<g transform="translate(275.7,449.9)" stroke="none" fill="black" font-family="Arial" font-size="12.00"  text-anchor="middle">
		<text><tspan font-family="Arial" > 40</tspan></text>
	</g>
</g>
<g fill="none" color="black" stroke="currentColor" stroke-width="1.00" stroke-linecap="butt" stroke-linejoin="miter">
	<path stroke='black'  d='M333.2,428.0 L333.2,419.0 M333.2,18.1 L333.2,27.1  '/>	<g transform="translate(333.2,449.9)" stroke="none" fill="black" font-family="Arial" font-size="12.00"  text-anchor="middle">
		<text><tspan font-family="Arial" > 50</tspan></text>
	</g>
</g>
<g fill="none" color="black" stroke="currentColor" stroke-width="1.00" stroke-linecap="butt" stroke-linejoin="miter">
	<path stroke='black'  d='M390.7,428.0 L390.7,419.0 M390.7,18.1 L390.7,27.1  '/>	<g transform="translate(390.7,449.9)" stroke="none" fill="black" font-family="Arial" font-size="12.00"  text-anchor="middle">
		<text><tspan font-family="Arial" > 60</tspan></text>
	</g>
</g>
<g fill="none" color="black" stroke="currentColor" stroke-width="1.00" stroke-linecap="butt" stroke-linejoin="miter">
	<path stroke='black'  d='M448.2,428.0 L448.2,419.0 M448.2,18.1 L448.2,27.1  '/>	<g transform="translate(448.2,449.9)" stroke="none" fill="black" font-family="Arial" font-size="12.00"  text-anchor="middle">
		<text><tspan font-family="Arial" > 70</tspan></text>
	</g>
</g>
<g fill="none" color="black" stroke="currentColor" stroke-width="1.00" stroke-linecap="butt" stroke-linejoin="miter">
	<path stroke='black'  d='M505.7,428.0 L505.7,419.0 M505.7,18.1 L505.7,27.1  '/>	<g transform="translate(505.7,449.9)" stroke="none" fill="black" font-family="Arial" font-size="12.00"  text-anchor="middle">
		<text><tspan font-family="Arial" > 80</tspan></text>
	</g>
</g>
<g fill="none" color="black" stroke="currentColor" stroke-width="1.00" stroke-linecap="butt" stroke-linejoin="miter">
	<path stroke='black'  d='M563.2,428.0 L563.2,419.0 M563.2,18.1 L563.2,27.1  '/>	<g transform="translate(563.2,449.9)" stroke="none" fill="black" font-family="Arial" font-size="12.00"  text-anchor="middle">
		<text><tspan font-family="Arial" > 90</tspan></text>
	</g>
</g>
<g fill="none" color="black" stroke="currentColor" stroke-width="1.00" stroke-linecap="butt" stroke-linejoin="miter">
</g>
<g fill="none" color="black" stroke="currentColor" stroke-width="1.00" stroke-linecap="butt" stroke-linejoin="miter">
	<path stroke='black'  d='M45.6,18.1 L45.6,428.0 L615.0,428.0 L615.0,18.1 L45.6,18.1 Z  '/></g>
<g fill="none" color="black" stroke="currentColor" stroke-width="1.00" stroke-linecap="butt" stroke-linejoin="miter">
</g>
	<g id="gnuplot_plot_1" ><title>pages+cached+noexternal+nosvg</title>
<g fill="none" color="black" stroke="currentColor" stroke-width="1.00" stroke-linecap="butt" stroke-linejoin="miter">
	<g transform="translate(271.5,467.9)" stroke="none" fill="black" font-family="Arial" font-size="12.00"  text-anchor="end">
		<text><tspan font-family="Arial" >pages+cached+noexternal+nosvg</tspan></text>
	</g>
</g>
<g fill="none" color="black" stroke="currentColor" stroke-width="1.00" stroke-linecap="butt" stroke-linejoin="miter">
	<path stroke='rgb(148,   0, 211)'  d='M279.8,464.0 L322.0,464.0 M45.6,395.2 L51.4,403.5 L57.1,395.2 L62.9,395.2 L68.6,411.8 L74.4,395.2
		L80.1,403.5 L85.9,386.9 L91.6,395.2 L97.4,403.5 L103.1,403.5 L108.9,26.0 L114.6,386.9 L120.4,403.5
		L126.1,403.5 L131.9,403.5 L137.6,395.2 L143.4,403.5 L149.1,403.5 L154.9,362.0 L160.6,395.2 L166.4,411.8
		L172.1,411.8 L177.9,403.5 L183.6,403.5 L189.4,395.2 L195.1,403.5 L200.9,403.5 L206.6,362.0 L212.4,411.8
		L218.1,403.5 L223.9,395.2 L229.6,403.5 L235.4,403.5 L241.2,411.8 L246.9,403.5 L252.7,386.9 L258.4,403.5
		L264.2,411.8 L269.9,395.2 L275.7,403.5 L281.4,395.2 L287.2,362.0 L292.9,403.5 L298.7,395.2 L304.4,362.0
		L310.2,362.0 L315.9,362.0 L321.7,403.5 L327.4,403.5 L333.2,362.0 L338.9,395.2 L344.7,403.5 L350.4,403.5
		L356.2,411.8 L361.9,403.5 L367.7,411.8 L373.4,403.5 L379.2,386.9 L384.9,403.5 L390.7,395.2 L396.4,395.2
		L402.2,403.5 L407.9,395.2 L413.7,395.2 L419.4,403.5 L425.2,403.5 L431.0,395.2 L436.7,403.5 L442.5,353.7
		L448.2,403.5 L454.0,403.5 L459.7,403.5 L465.5,403.5 L471.2,411.8 L477.0,403.5 L482.7,411.8 L488.5,386.9
		L494.2,395.2 L500.0,395.2 L505.7,403.5 L511.5,403.5 L517.2,362.0 L523.0,362.0 L528.7,395.2 L534.5,395.2
		L540.2,403.5 L546.0,403.5 L551.7,403.5 L557.5,362.0 L563.2,370.3 L569.0,403.5 L574.7,403.5 L580.5,403.5
		L586.2,403.5 L592.0,403.5 L597.7,362.0 L603.5,395.2 L609.2,403.5 L615.0,403.5  '/></g>
	</g>
	<g id="gnuplot_plot_2" ><title>pages+cached+noexternal+noimg</title>
<g fill="none" color="black" stroke="currentColor" stroke-width="1.00" stroke-linecap="butt" stroke-linejoin="miter">
	<g transform="translate(271.5,485.9)" stroke="none" fill="black" font-family="Arial" font-size="12.00"  text-anchor="end">
		<text><tspan font-family="Arial" >pages+cached+noexternal+noimg</tspan></text>
	</g>
</g>
<g fill="none" color="black" stroke="currentColor" stroke-width="1.00" stroke-linecap="butt" stroke-linejoin="miter">
	<path stroke='rgb(  0, 158, 115)'  d='M279.8,482.0 L322.0,482.0 M45.6,395.2 L51.4,353.7 L57.1,411.8 L62.9,362.0 L68.6,403.5 L74.4,411.8
		L80.1,403.5 L85.9,345.4 L91.6,411.8 L97.4,403.5 L103.1,403.5 L108.9,337.1 L114.6,403.5 L120.4,370.3
		L126.1,337.1 L131.9,403.5 L137.6,403.5 L143.4,411.8 L149.1,403.5 L154.9,370.3 L160.6,411.8 L166.4,411.8
		L172.1,403.5 L177.9,403.5 L183.6,345.4 L189.4,403.5 L195.1,395.2 L200.9,403.5 L206.6,403.5 L212.4,403.5
		L218.1,403.5 L223.9,403.5 L229.6,337.1 L235.4,395.2 L241.2,411.8 L246.9,345.4 L252.7,395.2 L258.4,395.2
		L264.2,403.5 L269.9,411.8 L275.7,403.5 L281.4,395.2 L287.2,420.1 L292.9,395.2 L298.7,370.3 L304.4,403.5
		L310.2,411.8 L315.9,395.2 L321.7,411.8 L327.4,403.5 L333.2,395.2 L338.9,312.2 L344.7,370.3 L350.4,395.2
		L356.2,403.5 L361.9,395.2 L367.7,403.5 L373.4,411.8 L379.2,345.4 L384.9,403.5 L390.7,395.2 L396.4,395.2
		L402.2,403.5 L407.9,403.5 L413.7,411.8 L419.4,403.5 L425.2,395.2 L431.0,345.4 L436.7,378.6 L442.5,370.3
		L448.2,403.5 L454.0,411.8 L459.7,403.5 L465.5,403.5 L471.2,403.5 L477.0,345.4 L482.7,353.7 L488.5,411.8
		L494.2,403.5 L500.0,353.7 L505.7,403.5 L511.5,411.8 L517.2,403.5 L523.0,345.4 L528.7,403.5 L534.5,403.5
		L540.2,395.2 L546.0,403.5 L551.7,411.8 L557.5,337.1 L563.2,395.2 L569.0,403.5 L574.7,411.8 L580.5,403.5
		L586.2,403.5 L592.0,403.5 L597.7,345.4 L603.5,403.5 L609.2,403.5 L615.0,403.5  '/></g>
	</g>
	<g id="gnuplot_plot_3" ><title>score p10=130</title>
<g fill="none" color="black" stroke="currentColor" stroke-width="1.00" stroke-linecap="butt" stroke-linejoin="miter">
	<g transform="translate(571.0,467.9)" stroke="none" fill="black" font-family="Arial" font-size="12.00"  text-anchor="end">
		<text><tspan font-family="Arial" >score p10=130</tspan></text>
	</g>
</g>
<g fill="none" color="black" stroke="currentColor" stroke-width="1.00" stroke-linecap="butt" stroke-linejoin="miter">
	<path stroke='rgb( 86, 180, 233)'  d='M579.3,464.0 L621.5,464.0  '/></g>
	</g>
	<g id="gnuplot_plot_4" ><title>score median=250</title>
<g fill="none" color="black" stroke="currentColor" stroke-width="1.00" stroke-linecap="butt" stroke-linejoin="miter">
	<g transform="translate(571.0,485.9)" stroke="none" fill="black" font-family="Arial" font-size="12.00"  text-anchor="end">
		<text><tspan font-family="Arial" >score median=250</tspan></text>
	</g>
</g>
<g fill="none" color="black" stroke="currentColor" stroke-width="1.00" stroke-linecap="butt" stroke-linejoin="miter">
	<path stroke='rgb(230, 159,   0)'  d='M579.3,482.0 L621.5,482.0  '/></g>
	</g>
<g fill="none" color="#FFFFFF" stroke="rgb(230, 159,   0)" stroke-width="2.00" stroke-linecap="butt" stroke-linejoin="miter">
</g>
<g fill="none" color="black" stroke="currentColor" stroke-width="2.00" stroke-linecap="butt" stroke-linejoin="miter">
</g>
<g fill="none" color="black" stroke="black" stroke-width="1.00" stroke-linecap="butt" stroke-linejoin="miter">
</g>
<g fill="none" color="black" stroke="currentColor" stroke-width="1.00" stroke-linecap="butt" stroke-linejoin="miter">
	<path stroke='black'  d='M45.6,18.1 L45.6,428.0 L615.0,428.0 L615.0,18.1 L45.6,18.1 Z  '/></g>
<g fill="none" color="black" stroke="currentColor" stroke-width="1.00" stroke-linecap="butt" stroke-linejoin="miter">
</g>
</g>
</svg>
